svg/device/usb_line.svg

<?xml version="1.0" encoding="UTF-8"?>
<svg width="24px" height="24px" viewBox="0 0 24 24" version="1.1" xmlns="http://www.w3.org/2000/svg" xmlns:xlink="http://www.w3.org/1999/xlink">
    <title>usb_line</title>
    <g id="Icon" stroke="none" stroke-width="1" fill="none" fill-rule="evenodd">
        <g id="Device" transform="translate(-912.000000, -192.000000)">
            <g id="usb_line" transform="translate(912.000000, 192.000000)">
                <path d="M24,0 L24,24 L0,24 L0,0 L24,0 Z M12.5934901,23.257841 L12.5819402,23.2595131 L12.5108777,23.2950439 L12.4918791,23.2987469 L12.4918791,23.2987469 L12.4767152,23.2950439 L12.4056548,23.2595131 C12.3958229,23.2563662 12.3870493,23.2590235 12.3821421,23.2649074 L12.3780323,23.275831 L12.360941,23.7031097 L12.3658947,23.7234994 L12.3769048,23.7357139 L12.4804777,23.8096931 L12.4953491,23.8136134 L12.4953491,23.8136134 L12.5071152,23.8096931 L12.6106902,23.7357139 L12.6232938,23.7196733 L12.6232938,23.7196733 L12.6266527,23.7031097 L12.609561,23.275831 C12.6075724,23.2657013 12.6010112,23.2592993 12.5934901,23.257841 L12.5934901,23.257841 Z M12.8583906,23.1452862 L12.8445485,23.1473072 L12.6598443,23.2396597 L12.6498822,23.2499052 L12.6498822,23.2499052 L12.6471943,23.2611114 L12.6650943,23.6906389 L12.6699349,23.7034178 L12.6699349,23.7034178 L12.678386,23.7104931 L12.8793402,23.8032389 C12.8914285,23.8068999 12.9022333,23.8029875 12.9078286,23.7952264 L12.9118235,23.7811639 L12.8776777,23.1665331 C12.8752882,23.1545897 12.8674102,23.1470016 12.8583906,23.1452862 L12.8583906,23.1452862 Z M12.1430473,23.1473072 C12.1332178,23.1423925 12.1221763,23.1452606 12.1156365,23.1525954 L12.1099173,23.1665331 L12.0757714,23.7811639 C12.0751323,23.7926639 12.0828099,23.8018602 12.0926481,23.8045676 L12.108256,23.8032389 L12.3092106,23.7104931 L12.3186497,23.7024347 L12.3186497,23.7024347 L12.3225043,23.6906389 L12.340401,23.2611114 L12.337245,23.2485176 L12.337245,23.2485176 L12.3277531,23.2396597 L12.1430473,23.1473072 Z" id="MingCute" fill-rule="nonzero"></path>
                <path d="M12,2 C12.3038,2 12.5911,2.13809 12.7809,2.3753 L14.7809,4.87531 C15.021,5.17547 15.0678,5.58672 14.9013,5.93319 C14.7348,6.27965 14.3844,6.5 14,6.5 L13,6.5 L13,12.882 L16,11.382 L16,11 C15.4477,11 15,10.5523 15,10 L15,8 C15,7.44772 15.4477,7 16,7 L18,7 C18.5523,7 19,7.44772 19,8 L19,10 C19,10.5523 18.5523,11 18,11 L18,11.382 C18,12.1395 17.572,12.832 16.8944,13.1708 L13.5528,14.8416 C13.214,15.011 13,15.3573 13,15.7361 L13,16.1707 C14.1652,16.5825 15,17.6938 15,19 C15,20.6569 13.6569,22 12,22 C10.3431,22 9,20.6569 9,19 C9,17.8768 9.61728,16.8977 10.5311,16.3836 L7.10557,14.6708 C6.428,14.332 6,13.6395 6,12.882 L6,11.7324 C5.4022,11.3866 5,10.7403 5,10 C5,8.89543 5.89543,8 7,8 C8.10457,8 9,8.89543 9,10 C9,10.7403 8.5978,11.3866 8,11.7324 L8,12.882 L11,14.382 L11,6.5 L10,6.5 C9.61559,6.5 9.26522,6.27965 9.0987,5.93319 C8.93218,5.58672 8.979,5.17547 9.21913,4.8753 L11.2191,2.3753 C11.4089,2.13809 11.6962,2 12,2 Z M12,18 C11.4477,18 11,18.4477 11,19 C11,19.5523 11.4477,20 12,20 C12.5523,20 13,19.5523 13,19 C13,18.4477 12.5523,18 12,18 Z" id="形状" fill="#09244B"></path>
            </g>
        </g>
    </g>
</svg>

<svg xmlns="http://www.w3.org/2000/svg" width="24" height="24"><g fill="none" fill-rule="evenodd"><path d="M24 0v24H0V0h24ZM12.593 23.258l-.011.002-.071.035-.02.004-.014-.004-.071-.035c-.01-.004-.019-.001-.024.005l-.004.01-.017.428.005.02.01.013.104.074.015.004.012-.004.104-.074.012-.016.004-.017-.017-.427c-.002-.01-.009-.017-.017-.018Zm.265-.113-.013.002-.185.093-.01.01-.003.011.018.43.005.012.008.007.201.093c.012.004.023 0 .029-.008l.004-.014-.034-.614c-.003-.012-.01-.02-.02-.022Zm-.715.002a.023.023 0 0 0-.027.006l-.006.014-.034.614c0 .012.007.02.017.024l.015-.002.201-.093.01-.008.004-.011.017-.43-.003-.012-.01-.01-.184-.092Z"/><path fill="#09244B" d="M12 2a1 1 0 0 1 .78.375l2 2.5A1 1 0 0 1 14 6.5h-1v6.382l3-1.5V11a1 1 0 0 1-1-1V8a1 1 0 0 1 1-1h2a1 1 0 0 1 1 1v2a1 1 0 0 1-1 1v.382a2 2 0 0 1-1.106 1.789l-3.341 1.67a1 1 0 0 0-.553.895v.435a3.001 3.001 0 1 1-2.469.213L7.106 14.67A2 2 0 0 1 6 12.882v-1.15A2 2 0 0 1 7 8a2 2 0 0 1 1 3.732v1.15l3 1.5V6.5h-1a1 1 0 0 1-.78-1.625l2-2.5A1 1 0 0 1 12 2Zm0 16a1 1 0 1 0 0 2 1 1 0 0 0 0-2Z"/></g></svg>
